!!!Rep U0561
!!!Isim(Name): Kar mı Yağmış Diyarbakır'ın Dağına
!!!Yore(Region): Diyarbakır
!!!Makam: Hüseyni
!!!Donanim(Key Signature): b-2
!!!Usul: 10/8
**kern	**Dcent
*staff1	*.
=1-	=1-
*clefG2	*.
*k[b-]	*.
*M10/8	*.
4a	0
8a	0
4ee	0
4dd	0
4ee	0
8cc	0
=2	=2
4dd	0
8dd	0
8ee	0
8dd	0
8dd	0
8gg	0
4ee	0
8r	.
=3:!	=3:!
4a	0
8a	0
4ee	0
4dd	0
4ee	0
8cc	0
=4	=4
!!linebreak:default
4b-	50
8cc	0
8cc	0
8dd	0
8b-	50
8cc	0
8b-	50
4dd	0
8b-	50
=5	=5
8cc	0
8b-	50
8cc	0
8dd	0
8b-	50
8b-	50
8a	0
4.a	0
=6!:	=6!:
4g	0
8cc	0
8b-	50
8cc	0
4a	0
8dd	0
8b-	50
8cc	0
=7	=7
!!linebreak:default
4b-	50
8cc	0
8b-	50
8cc	0
8a	0
8dd	0
4.a	0
=8:!	=8:!
16cc	0
16dd	0
16ee	0
16dd	0
16ee	0
16ee	0
4e;	0
=9	=9
16gg	0
16ff#	50
16gg	0
16gg	0
4gg;	0
=9b	=9b
*-	*-
!! Uzun Hava Humdrum Bilgi Bankasi (Uzun Hava Humdrum Database)
!! 
!! Sertan Senturk, Parag Chordia & Erdal Tugcular
!! Georgia Tech Center for Music Technology, 2011
